X:134
M:2/4
L:1/8
Q:1/4=140
K:F
|:e/f/|gabg|fedc|Bdgf|fedc|dBcA|Begb|afge|f3:|

